X: 181
T: The P&O
R: polka
M: 2/4
L: 1/8
K:Emin
"Em"B,E EF|GA/2G/2 FE|"D"A,D DE|FG/2F/2 ED|
"Em"B,E EF|GA/2G/2 FA|"G"GB "D"Ad|"Em"e2 e2 :|
|:"Em"ge "D"fd|"Em"ed BA|"D"Fd de|f2 ef|
"Em"ge "D"fd|"Em"ed BA|"G"GB "D"Ad|"Em"e2 e2 :|


